svg/transport/front_fog_lights_fill.svg

<?xml version="1.0" encoding="UTF-8"?>
<svg width="24px" height="24px" viewBox="0 0 24 24" version="1.1" xmlns="http://www.w3.org/2000/svg" xmlns:xlink="http://www.w3.org/1999/xlink">
    <title>front_fog_lights_fill</title>
    <g id="页面-1" stroke="none" stroke-width="1" fill="none" fill-rule="evenodd">
        <g id="Transport" transform="translate(-816.000000, -144.000000)" fill-rule="nonzero">
            <g id="front_fog_lights_fill" transform="translate(816.000000, 144.000000)">
                 <path d="M24,0 L24,24 L0,24 L0,0 L24,0 Z M12.5934901,23.257841 L12.5819402,23.2595131 L12.5108777,23.2950439 L12.4918791,23.2987469 L12.4918791,23.2987469 L12.4767152,23.2950439 L12.4056548,23.2595131 C12.3958229,23.2563662 12.3870493,23.2590235 12.3821421,23.2649074 L12.3780323,23.275831 L12.360941,23.7031097 L12.3658947,23.7234994 L12.3769048,23.7357139 L12.4804777,23.8096931 L12.4953491,23.8136134 L12.4953491,23.8136134 L12.5071152,23.8096931 L12.6106902,23.7357139 L12.6232938,23.7196733 L12.6232938,23.7196733 L12.6266527,23.7031097 L12.609561,23.275831 C12.6075724,23.2657013 12.6010112,23.2592993 12.5934901,23.257841 L12.5934901,23.257841 Z M12.8583906,23.1452862 L12.8445485,23.1473072 L12.6598443,23.2396597 L12.6498822,23.2499052 L12.6498822,23.2499052 L12.6471943,23.2611114 L12.6650943,23.6906389 L12.6699349,23.7034178 L12.6699349,23.7034178 L12.678386,23.7104931 L12.8793402,23.8032389 C12.8914285,23.8068999 12.9022333,23.8029875 12.9078286,23.7952264 L12.9118235,23.7811639 L12.8776777,23.1665331 C12.8752882,23.1545897 12.8674102,23.1470016 12.8583906,23.1452862 L12.8583906,23.1452862 Z M12.1430473,23.1473072 C12.1332178,23.1423925 12.1221763,23.1452606 12.1156365,23.1525954 L12.1099173,23.1665331 L12.0757714,23.7811639 C12.0751323,23.7926639 12.0828099,23.8018602 12.0926481,23.8045676 L12.108256,23.8032389 L12.3092106,23.7104931 L12.3186497,23.7024347 L12.3186497,23.7024347 L12.3225043,23.6906389 L12.340401,23.2611114 L12.337245,23.2485176 L12.337245,23.2485176 L12.3277531,23.2396597 L12.1430473,23.1473072 Z" id="MingCute" fill-rule="nonzero"></path>
                <path d="M6.78089,4.62473 C7.1259,4.19347 7.05598,3.56418 6.62472,3.21917 C6.19345,2.87416 5.56416,2.94408 5.21915,3.37534 L4.68197,4.04683 C4.08951,4.7874 3.81185,5.6913 3.84605,6.58459 L2.62863,7.07156 C2.11585,7.27667 1.86643,7.85864 2.07155,8.37143 C2.27666,8.88421 2.85863,9.13363 3.37141,8.92851 L4.44529,8.49896 C4.5405,8.64774 4.64697,8.7914 4.76469,8.92874 C5.31178,9.56701 5.35174,10.4942 4.86718,11.1761 L2.62863,12.0716 C2.11585,12.2767 1.86643,12.8586 2.07155,13.3714 C2.27666,13.8842 2.85863,14.1336 3.37141,13.9285 L3.79738,13.7581 C3.7688,14.6464 4.04881,15.5405 4.63188,16.2703 L2.62863,17.0716 C2.11585,17.2767 1.86643,17.8586 2.07155,18.3714 C2.27666,18.8842 2.85863,19.1336 3.37141,18.9285 L5.01377,18.2716 C4.94961,18.4239 4.86383,18.5695 4.75634,18.7039 L4.21915,19.3753 C3.87414,19.8066 3.94406,20.4359 4.37533,20.7809 C4.80659,21.1259 5.43588,21.056 5.78089,20.6247 L6.31808,19.9532 C6.91054,19.2127 7.18819,18.3088 7.15399,17.4155 L8.37141,16.9285 C8.8842,16.7234 9.13361,16.1414 8.9285,15.6286 C8.72339,15.1159 8.14141,14.8664 7.62863,15.0716 L6.55475,15.5011 C6.45955,15.3523 6.35307,15.2087 6.23536,15.0713 C5.68827,14.4331 5.6483,13.5059 6.13286,12.8239 L8.37141,11.9285 C8.8842,11.7234 9.13361,11.1414 8.9285,10.6286 C8.72339,10.1159 8.14141,9.86645 7.62863,10.0716 L7.20266,10.2419 C7.23124,9.35366 6.95123,8.45953 6.36817,7.72981 L8.37141,6.92851 C8.8842,6.7234 9.13361,6.14143 8.9285,5.62865 C8.72339,5.11586 8.14141,4.86645 7.62863,5.07156 L5.98627,5.7285 C6.05044,5.57619 6.13622,5.43057 6.2437,5.29622 L6.78089,4.62473 Z M10.2314,7.42935 C10.5614,4.23444 13.865,2.73459 16.6123,3.95562 L16.8371,4.05553 C19.9767,5.4509 22,8.56434 22,12 C22,15.4357 19.9767,18.5492 16.8371,19.9445 L16.6123,20.0444 C13.865,21.2655 10.5614,19.7656 10.2314,16.5707 C10.0969,15.2691 10,13.7308 10,12 C10,10.2693 10.0969,8.73098 10.2314,7.42935 Z" id="形状" fill="#09244B"></path>
            </g>
        </g>
    </g>
</svg>

<svg xmlns="http://www.w3.org/2000/svg" width="24" height="24"><g fill="none" fill-rule="nonzero"><path d="M24 0v24H0V0h24ZM12.593 23.258l-.011.002-.071.035-.02.004-.014-.004-.071-.035c-.01-.004-.019-.001-.024.005l-.004.01-.017.428.005.02.01.013.104.074.015.004.012-.004.104-.074.012-.016.004-.017-.017-.427c-.002-.01-.009-.017-.017-.018Zm.265-.113-.013.002-.185.093-.01.01-.003.011.018.43.005.012.008.007.201.093c.012.004.023 0 .029-.008l.004-.014-.034-.614c-.003-.012-.01-.02-.02-.022Zm-.715.002a.023.023 0 0 0-.027.006l-.006.014-.034.614c0 .012.007.02.017.024l.015-.002.201-.093.01-.008.004-.011.017-.43-.003-.012-.01-.01-.184-.092Z"/><path fill="#09244B" d="M6.78 4.625a1 1 0 1 0-1.56-1.25l-.538.672a3.82 3.82 0 0 0-.836 2.538l-1.217.487a1 1 0 1 0 .742 1.857l1.074-.43c.095.149.202.292.32.43.547.638.587 1.565.102 2.247l-2.238.896a1 1 0 1 0 .742 1.857l.426-.17a3.823 3.823 0 0 0 .835 2.511l-2.003.802a1 1 0 1 0 .742 1.857l1.643-.657c-.064.152-.15.298-.258.432l-.537.671a1 1 0 0 0 1.562 1.25l.537-.672a3.82 3.82 0 0 0 .836-2.537l1.217-.488a1 1 0 1 0-.742-1.856l-1.074.43a3.848 3.848 0 0 0-.32-.43 1.827 1.827 0 0 1-.102-2.248l2.238-.896a1 1 0 1 0-.742-1.856l-.426.17a3.823 3.823 0 0 0-.835-2.512l2.003-.801a1 1 0 1 0-.742-1.857l-1.643.657c.064-.153.15-.298.258-.433l.537-.671Zm3.451 2.804c.33-3.195 3.634-4.694 6.381-3.473l.225.1a8.694 8.694 0 0 1 0 15.889l-.225.1c-2.747 1.22-6.05-.28-6.38-3.474A44.561 44.561 0 0 1 10 12c0-1.73.097-3.269.231-4.57Z"/></g></svg>
